X: 1
T: The Bird in the Tree
T: Bird in the Bush
S: Best of J&A Mckenna Trk 1
Z: Ed Wosika
R: reel
M: 4/4
L: 1/8
K: G
B| "G"d2eB dBBB| "Am"cA "G"BG "C"EA "D7"AG| "Am"eAA2 "G"BGAG| BABd g3e|
dBeB d~B3| "Am"cA "G"BG "C"EGGE| "D7"DEGA ~B2eB| dBcA "G"G3:||:
